src/assets/icons/settings/wallet.svg

<?xml version="1.0" encoding="UTF-8"?>
<svg width="24px" height="24px" viewBox="0 0 24 24" version="1.1" xmlns="http://www.w3.org/2000/svg" xmlns:xlink="http://www.w3.org/1999/xlink">
    <title>形状结合</title>
    <g id="扩展程序" stroke="none" stroke-width="1" fill="none" fill-rule="evenodd">
        <g id="设置" transform="translate(-40.000000, -642.000000)" fill="#6E7585" fill-rule="nonzero">
            <g id="编组-6备份-8" transform="translate(20.000000, 514.000000)">
                <g id="编组-4备份-27" transform="translate(20.000000, 112.000000)">
                    <g id="形状结合-2" transform="translate(0.000000, 16.000000)">
                        <path d="M19,2 C20.6568542,2 22,3.34314575 22,5 L22,19 C22,20.6568542 20.6568542,22 19,22 L5,22 C3.34314575,22 2,20.6568542 2,19 L2,5 C2,3.34314575 3.34314575,2 5,2 L19,2 Z M19,4 L5,4 C4.44771525,4 4,4.44771525 4,5 L4,5 L4,19 C4,19.5522847 4.44771525,20 5,20 L5,20 L19,20 C19.5522847,20 20,19.5522847 20,19 L20,19 L20,15.5 L15.5,15.5 C13.5670034,15.5 12,13.9329966 12,12 C12,10.0670034 13.5670034,8.5 15.5,8.5 L20,8.5 L20,5 C20,4.48716416 19.6139598,4.06449284 19.1166211,4.00672773 L19,4 Z M20,10.5 L15.5,10.5 C14.6715729,10.5 14,11.1715729 14,12 C14,12.8284271 14.6715729,13.5 15.5,13.5 L15.5,13.5 L20,13.5 L20,10.5 Z" id="形状结合"></path>
                    </g>
                </g>
            </g>
        </g>
    </g>
</svg>

<svg width="24" height="24" xmlns="http://www.w3.org/2000/svg"><path d="M19 2a3 3 0 0 1 3 3v14a3 3 0 0 1-3 3H5a3 3 0 0 1-3-3V5a3 3 0 0 1 3-3h14zm0 2H5a1 1 0 0 0-1 1v14a1 1 0 0 0 1 1h14a1 1 0 0 0 1-1v-3.5h-4.5a3.5 3.5 0 0 1 0-7H20V5a1 1 0 0 0-.883-.993L19 4zm1 6.5h-4.5a1.5 1.5 0 0 0 0 3H20v-3z" fill="#6e7585" fill-rule="nonzero"/></svg>
